X:1
T:Von Freund zu Freund
T:Von Freund zu Freund
T:Tromba - Fisarmonica - Bombardino
T:Beghei Sbreghei
T:Beghei Sbreghei
T:Beghei Sbreghei
T:Beghei Sbreghei
T:Beghei Sbreghei
Z:Beghei Sbreghei
%%score 1 2 3
L:1/8
M:2/4
K:C
V:1 treble transpose=-2 nm="Tromba in Si♭"
V:2 treble nm="Fisarmonica"
V:3 treble-8 transpose=-2 nm="Tromba in Si♭"
V:1
[K:D]!mf! D2 EF | G2 FE | D2 A>G | F4 | G2 (F/G/A/B/) | c2 BG | !fermata!F4 | D2 EF | G2 FE | %9
 D2 A>G | F4 | E2 (^D/E/F/G/) | A3 C | !fermata!D4 | F2 .G.A | B2 (A/B/)A/G/ | F4- | F(A Bc) | %18
 d2 .e.f | g2 (f/g/)f/e/ | d4- | d2 z2 | z4 | z4 | z d/e/ (f/e/)d/e/ | f z z2 | z4 | z4 | %28
 z c/d/ (e/d/)c/d/ | e (c/B/) .A.G | F2 .G.A | B2 (A/B/)A/G/ | F4- | F(A Bc) | d2 .e.f | %35
 g2 (f/g/)f/e/ | d4- | d2 .d.c | B3 c/d/ | ed cB | A3 ^G/=G/ | F4 | G2 .A.B | Tc3 e | d4- | %45
 d.d/.d/ .d.d | d4- | d z{ABc} !>!d z | z4 | z4 | z4 | z2 (F/G/)A/B/ | .c.d e2- | e(d cB) | %54
 A2 f>e | d4 | z4 | z4 | z4 | z2!f! (F/G/)A/B/ | .c.d e2- | e2 G/A/B/=c/ | !>!c z z2 | z4 | %64
!f!!>(! !>!G4-!>)! | G4 | z4 | z4 | z4 | z4 | z4 | z4 | z4 | z4 | z4 | z4 | z4 | z4 | z4 | z4 | %80
 z4 | z4 | z4 | z4 | z4 | z4 | z4 | z4 | z4 |!mp! z2 (3!tenuto!B!tenuto!=c!tenuto!d | e4 | %91
 !tenuto!d2 !tenuto!B2 | d4 | =c4 | B4- | B4- | B z!mf! G2 | FG FE | D4 | G4 | E4 | %101
 !tenuto!F2 !tenuto!G2 | D4 | !tenuto!G2 !tenuto!A2 | A4- | A4 | G4 | !tenuto!A2 !tenuto!B2 | %108
 !tenuto!=c2 !tenuto!B2 | (3G2 A2 B2 | A4- | A2 !tenuto!A!tenuto!G | F4- | F3 (G/^G/) | A4 | %115
 !tenuto!F2 !tenuto!G2 | E4- | E4 | !tenuto!F2 !tenuto!G2 | A2 !tenuto!D2 | B4- | %121
 B2 (3!tenuto!G!tenuto!A!tenuto!B | =c4 | !tenuto!B2 !tenuto!G2 | B4 | A4 |!<(! G4-!<)! | G4- | %128
 G z!f! !>!G/!>!G/!>!G/!>!G/ | !>!G z z2 | .A.A z .A | z .A z .A | z .A/.A/ .A.A | .A z z2 | %134
 .=c.c z .c | z .=c z .c | z .=c/.c/ .c.c | .=c(E/=F/) .G.A | B2 .=c.d | e2 (d/e/)d/=c/ | %140
!<(! z G/G/ B!<)!d | .g.g/.g/ !>!g2 |!ff! G4 | =c4 | A4 | !tenuto!B2 !tenuto!=c2 | G4 | %147
 !tenuto!=c2 !tenuto!d2 | d4- | d4 | =c4 | !tenuto!d2 !tenuto!e2 | !tenuto!=f2 !tenuto!e2 | %153
 (3=c2 d2 e2 | d4- | d2 !tenuto!d!tenuto!=c | B4- | B3 (=c/^c/) | d4 | !tenuto!B2 !tenuto!=c2 | %160
 A4- | A4 | !tenuto!B2 !tenuto!=c2 | !tenuto!d2 !tenuto!G2 | e4- | %165
 e z (3!tenuto!=c!tenuto!d!tenuto!e | =f4 | !tenuto!e2 !tenuto!=c2 | e4 | d4 | =c4- | c4- | %172
 c z z2 |{GAB} !>!=c2 z2 |] %174
V:2
 z4 | z4 | z4 | z4 | z4 | z4 | z4 | z4 | z4 | z4 | z4 | z4 | z4 | z4 |!mf! [CE]2 .[DF].[EG] | %15
 [FA]2 ([EG]/[FA]/)[EG]/[DF]/ | [CE]4- | [CE]([B,G] [CA][DB]) | [Ec]2 .[Fd].[Ge] | %19
 [Af]2 ([Ge]/[Af]/)[Ge]/[Fd]/ | [Ec]4- | [Ec]2 z2 | z4 | z4 | z [Ec]/[Fd]/ ([Ge]/[Fd]/)[Ec]/[Fd]/ | %25
 [Ge] z z2 | z4 | z4 | z [GB]/[Ac]/ ([Bd]/[Ac]/)[GB]/[Ac]/ | [Bd] ([GB]/[FA]/) .[EG].[DF] | %30
 [CE]2 .[DF].[EG] | [FA]2 ([EG]/[FA]/)[EG]/[DF]/ | [CE]4- | [CE]([B,G] [CA][DB]) | %34
 [Ec]2 .[Fd].[Ge] | [Af]2 ([Ge]/[Af]/)[Ge]/[Fd]/ | [Ec-]4 | [Ec]2 .[Ac].[GB] | [FA]3 [GB]/[Ac]/ | %39
 [Bd][Ac] [GB][FA] | [EG]3 [_E^F]/[D=F]/ | [^CE]4 | [DF]2 .[EG].[FA] | T[GB]3 [Fd] | [Ec-]4 | %45
 [Ec].c/.c/ .c.c | [Gc]4- | [Gc] z{GAB} !>![Gc] z | z4 | z4 | z4 | z2 ([^CE]/[DF]/)[EG]/[FA]/ | %52
 .[GB].[Ac] [Bd]2- | [Bd]([Ac] [GB][FA]) | [EG]2 [Ge]>[Fd] | [Ec]4 | z4 | z4 | z4 | %59
 z2!f!!f! ([^CE]/[DF]/)[EG]/[FA]/ | .[GB].[Ac] [Bd]2- | [Bd]2 [DF]/[EG]/[FA]/[^F_B]/ | %62
 !>![GB] z z2 | z4 |!f! .A, !tenuto!A,2!>(! .A,!>)! | z !tenuto!A,2 .A, |!mp! z !tenuto!A,2 .A, | %67
 z .A, z .A, | z !tenuto!_B,2 .B, | z ._B, z .B, | z !tenuto!A,2 .A, | z .A, z .G, | %72
 z !tenuto!G,2 .G, | z .G, z .G, | z !tenuto!A,2 .A, | z .A, z .A, | z !tenuto!_B,2 .B, | %77
 z ._B, z .A, | z !tenuto!G,2 .G, | z .G, z .G, | z !tenuto!G,2 .G, | z .G, z .G, | %82
 z !tenuto!A,2 .A, | z .A, z .A, | z !tenuto!_B,2 .B, | z ._B, z .B, | z !tenuto!C2 .C | %87
 z .C z ._B, | z !tenuto!A,2 .A, | z2 (3!tenuto!A!tenuto!_B!tenuto!c | d4 | !tenuto!c2 !tenuto!A2 | %92
 c4 | _B4 | A4- | A4- | [A,A] z!mf! [A,F]2 | [CE][DF] [CE][_B,D] | [A,C]4 | [A,F]4 | [_B,D]4 | %101
 !tenuto![CE]2 !tenuto![DF]2 | [A,C]4 | !tenuto![A,F]2 !tenuto![CG]2 | [EG]4- | [EG]4 | [DF]4 | %107
 !tenuto![EG]2 !tenuto![FA]2 | !tenuto![D_B]2 !tenuto![DA]2 | (3[DF]2 [EG]2 [FA]2 | [EG]4- | %111
 [EG]2 !tenuto![EG]!tenuto![DF] | [CE]4- | [CE]3 ([DF]/[_E^F]/) | [EG]4 | %115
 !tenuto![CE]2 !tenuto![CF]2 | [_B,D]4- | [B,D]4 | !tenuto![CE]2 !tenuto![DF]2 | [EG]2 !tenuto!C2 | %120
 [CA]4- | [CA]2 (3!tenuto!F!tenuto!G!tenuto!A | [D_B]4 | !tenuto![CA]2 !tenuto![A,F]2 | [CA]4 | %125
 [_B,G]4 | [A,F-]4 | [A,F-]4 | [A,F] z!f! !>![CF]/!>![CF]/!>![CF]/!>![CF]/ | !>![CF] z z2 | %130
 .[DG].[DG] z .[DG] | z .[_EG] z .[EG] | z .[DG]/.[DG]/ .[DG].[DG] | .[DG] z z2 | %134
 .[D_B].[DB] z .[DB] | z .[G_B] z .[GB] | z .[F_B]/.[FB]/ .[FB].[FB] | %137
 .[D_B]([_B,D]/[C_E]/) .[DF].[EG] | [FA]2 .[G_B].[Ac] | [_Bd]2 ([Ac]/[Bd]/)[Ac]/[GB]/ | %140
!<(! z F/F/ Ac!<)! | .[Ff].f/.f/ !>!f2 |!ff! [DF]4 | [F_B]4 | [_EG]4 | %145
 !tenuto![FA]2 !tenuto![G_B]2 | [DF]4 | !tenuto![F_B]2 !tenuto![Fc]2 | FF/F/ .A.c | [cf]4 | %150
 [G_B]4 | !tenuto![Ac]2 !tenuto![_Bd]2 | !tenuto![_B_e]2 !tenuto![Bd]2 | (3[G_B]2 [Ac]2 [Bd]2 | %154
 [Ac]4- | [Ac]2 !tenuto![Ac]!tenuto![G_B] | [FA-]4 | [FA]3 ([G_B]/[_A=B]/) | [Ac]4 | %159
 !tenuto![FA]2 !tenuto![F_B]2 | [_EG]4- | [EG]4 | !tenuto![FA]2 !tenuto![G_B]2 | %163
 !tenuto![Ac]2 !tenuto!F2 | [Fd-]4 | [Fd] z (3!tenuto![D_B]!tenuto![_Ec]!tenuto![Fd] | [G_e]4 | %167
 !tenuto![Fd]2 !tenuto![D_B]2 | [Fd]4 | [_Ec]4 | [D_B]4- | [DB]4- | [DB] z z2 |{FGA} !>!_B2 z2 |] %174
V:3
[K:D]!mf! F2 GA | B2 AG | F2 f>e | d4 | B2 (_B/=B/c/d/) | e2 dB | A4 | F2 GA | B2 AG | F2 f>e | %10
 d4 | G2 (F/G/)A/B/ | c3 G | !fermata!F4 | .A.A z .A | z .B z .A | z .A/.A/ .A.A | z .A z .A | %18
 z .A z .A | z .B z .A | z .A/.A/ .A.A | z2 .d.c | B3 c/d/ | ed cB | A4- | A z (^G/A/)B/c/ | %26
 d3 e/f/ | gf ed | e4- | e z z2 | .A.A z .A | z .B z .A | z .A/.A/ .A.A | z .A z .A | z .A z .A | %35
 z .B z .A | z .A/.A/ .A.A | .A.A z .A | z .B z .B | z .B z .B | z .A z .A | z .B/.B/ .B.B | %42
 .B.B z .B | z .A z .A | z .A/.A/ .A.A | A z z2 | z .A/.A/ .A.A | A z A z | f2 .f.e | %49
 d2 (c/d/)e/f/ | g2 .g.f | e4 | c2 .c.d | e A2 (B/c/) | d4- | d4 | f2 .f.e | d2 (c/d/)e/f/ | %58
 g2 .g.f | e4 | c2 .c.d | (e4 | !>!a) z e/f/g/^g/ | !>!a z z2 |!f!!>(! !>!B4-!>)! | B4 |!mp! D4 | %67
 G4 | E4 | !tenuto!F2 !tenuto!G2 | D4 | !tenuto!G2 !tenuto!A2 | A4- | A4 | G4 | %75
 !tenuto!A2 !tenuto!B2 | !tenuto!=c2 !tenuto!B2 | (3G2 A2 B2 | A4- | A2 AG | F4- | F3 (G/^G/) | %82
 A4 | !tenuto!F2 !tenuto!G2 | E4- | E4 | !tenuto!F2 !tenuto!G2 | !tenuto!A2 !tenuto!D2 | B4- | %89
 B2 (3!tenuto!G!tenuto!A!tenuto!B | =c4 | !tenuto!B2 !tenuto!G2 | B4 | A4 | G4- | G4- | G z z2 | %97
 z4 | z!mf! !tenuto!B2 .B | z .B z .B | z !tenuto!=c2 .c | z .=c z .c | z !tenuto!B2 .B | %103
 z .B z .A | z !tenuto!A2 .A | z .A z .A | z !tenuto!B2 .B | z .B z .B | z !tenuto!=c2 .c | %109
 z .=c z .B | z !tenuto!A2 .A | z .A z .A | z !tenuto!A2 .A | z .A z .A | z !tenuto!B2 .B | %115
 z .B z .B | z !tenuto!=c2 .c | z .=c z .c | z !tenuto!d2 .d | z .d z .=c | z !tenuto!B2 .B | %121
 z .B z .B | z !tenuto!=c2 .c | z .B z .B | z !tenuto!B2 .B | z .=c z .c | z !tenuto!B2 .B | %127
 z .B!<(! z .B!<)! | B z!f! !>!B/!>!B/!>!B/!>!B/ | !>!B z .=c.B | A2 .B.=c | d2 (=c/d/)c/B/ | A4- | %133
 A z .e.d | =c2 .d.e | =f2 (e/f/)e/d/ | =c4- | c z z2 | !>!G4 | !>!G4 |!<(! !>!G4!<)! | !>!g z z2 | %142
!ff! z .=c/.c/ .c.c | z .=c z .c | z .=c/.c/ .c.c | z .B z .=c | z .=c/.c/ .c.c | z .=c z .c | %148
 z .B/.B/ .B.B | z .B z .B | z .=c/.c/ .c.c | z .d z .=c | z .=c/.c/ .c.c | z .=c z .c | %154
 z .B/.B/ .B.B | z .B z .=c | z .B/.B/ .B.B | z .B z .B | z .B/.B/ .B.B | z .B z .B | %160
 z .=c/.c/ .c.c | z .=c z .c | z .B/.B/ .B.B | z .d z .d | z .=c/.c/ .c.c | z .=c z .c | %166
 z .=c/.c/ .c.c | z .=c z .c | z .=c/.c/ .c.c | z .d z .d | z .=c/.c/ .c.c | z .=c z .c | =c z z2 | %173
 !>!e2 z2 |] %174

